!!!COM: Haydn, Franz Joseph
!!!OPR: Symphony in G Major
!!!OTL: Affettuoso 
!!!OMV: 2
!!!SCT: H I:92
!!!SCA: Thematisch-bibliographisches Werkevererzeichnis (A. van Hoboken)
!!!YOR: Dover Edition
!!!EED: Frances Bennion
!!!ENC: Frances Bennion
!!!CDT: 1732/3/31/-1809/5/31/
!!!OCY: Österreich
!!!YEC: Copyright (c) 1994, 2000 Center for Computer Assisted Research in the Humanities
!!!YEM: Rights to all derivative editions reserved.
!!!YEM: Refer to licensing agreement for further details.
!!!YEN: United States of America
**kern	**kern	**kern	**kern	**kern	**kern	**kern	**kern	**kern	**kern	**kern	**kern	**kern	**kern
*k[f#c#]	*k[f#c#]	*k[f#c#]	*k[f#c#]	*k[f#c#]	*k[f#c#]	*k[f#c#]	*k[f#c#]	*k[f#c#]	*k[f#c#]	*k[]	*k[]	*k[]	*k[]
*D:	*D:	*D:	*D:	*D:	*D:	*D:	*D:	*D:	*D:	*D:	*D:	*D:	*D:
*clefF	*clefF	*clefF	*clefC3	*clefF4	*clefF4	*clefF	*clefF	*clefF4	*clefF4	*clefF	*clefF	*clefF	*clefF4
*M2/4	*M2/4	*M2/4	*M2/4	*M2/4	*M2/4	*M2/4	*M2/4	*M2/4	*M2/4	*M2/4	*M2/4	*M2/4	*M2/4
*tb96	*tb96	*tb96	*tb96	*tb96	*tb96	*tb96	*tb96	*tb96	*tb96	*tb96	*tb96	*tb96	*tb96
=1	=1	=1	=1	=1	=1	=1	=1	=1	=1	=1	=1	=1	=1
2r	8.f#	8.f#	4A	4A	4D	2r	2r	2r	2r	2r	2r	2r	2r
.	32e	32e	.	.	.	.	.	.	.	.	.	.	.
.	32f#	32f#	.	.	.	.	.	.	.	.	.	.	.
.	8g	8g	8B	8B	8GG	.	.	.	.	.	.	.	.
.	16.e	16.e	8G	8G	8AA	.	.	.	.	.	.	.	.
.	32c#	32c#	.	.	.	.	.	.	.	.	.	.	.
=2	=2	=2	=2	=2	=2	=2	=2	=2	=2	=2	=2	=2	=2
2r	8d	8d	4F#	4F#	4D	2r	2r	2r	2r	2r	2r	2r	2r
.	8f#	8f#	.	.	.	.	.	.	.	.	.	.	.
.	16a	16a	4r	4r	4r	.	.	.	.	.	.	.	.
.	8.r	8.r	.	.	.	.	.	.	.	.	.	.	.
=3	=3	=3	=3	=3	=3	=3	=3	=3	=3	=3	=3	=3	=3
2r	8.a	8d	4F#	4F#	[2D	2r	2r	2r	2r	2r	2r	2r	2r
.	.	8c	.	.	.	.	.	.	.	.	.	.	.
.	32g	.	.	.	.	.	.	.	.	.	.	.	.
.	32a	.	.	.	.	.	.	.	.	.	.	.	.
.	16b	8B	8.G	8.G	.	.	.	.	.	.	.	.	.
.	16cc#	.	.	.	.	.	.	.	.	.	.	.	.
.	16dd	8r	.	.	.	.	.	.	.	.	.	.	.
.	16b	.	16A	16A	.	.	.	.	.	.	.	.	.
=4	=4	=4	=4	=4	=4	=4	=4	=4	=4	=4	=4	=4	=4
2r	8a	8d	8B	8B	4D_	2r	2r	2r	2r	2r	2r	2r	2r
.	16g	8e	8c#	8c#	.	.	.	.	.	.	.	.	.
.	32f#	.	.	.	.	.	.	.	.	.	.	.	.
.	32g	.	.	.	.	.	.	.	.	.	.	.	.
.	8f#	8A	8d	8d	8D]	.	.	.	.	.	.	.	.
.	8r	8r	8r	8r	8r	.	.	.	.	.	.	.	.
=5	=5	=5	=5	=5	=5	=5	=5	=5	=5	=5	=5	=5	=5
2r	8.e	8c#	4G	4G	4G	2r	2r	2r	2r	2r	2r	2r	2r
.	.	8A	.	.	.	.	.	.	.	.	.	.	.
.	32f#	.	.	.	.	.	.	.	.	.	.	.	.
.	32g	.	.	.	.	.	.	.	.	.	.	.	.
.	16b	8d	4F#	4F#	4F#	.	.	.	.	.	.	.	.
.	16a	.	.	.	.	.	.	.	.	.	.	.	.
.	16g	8A	.	.	.	.	.	.	.	.	.	.	.
.	16f#	.	.	.	.	.	.	.	.	.	.	.	.
=6	=6	=6	=6	=6	=6	=6	=6	=6	=6	=6	=6	=6	=6
2r	16e	8c#	4G	4G	4G	2r	2r	2r	2r	2r	2r	2r	2r
.	32f#	.	.	.	.	.	.	.	.	.	.	.	.
.	32g	.	.	.	.	.	.	.	.	.	.	.	.
.	32a	8A	.	.	.	.	.	.	.	.	.	.	.
.	32b	.	.	.	.	.	.	.	.	.	.	.	.
.	32cc#	.	.	.	.	.	.	.	.	.	.	.	.
.	32dd	.	.	.	.	.	.	.	.	.	.	.	.
.	32ee	8d	4F#	4F#	4F#	.	.	.	.	.	.	.	.
.	32dd	.	.	.	.	.	.	.	.	.	.	.	.
.	32ff#	.	.	.	.	.	.	.	.	.	.	.	.
.	32ee	.	.	.	.	.	.	.	.	.	.	.	.
.	32dd	8A	.	.	.	.	.	.	.	.	.	.	.
.	32cc#	.	.	.	.	.	.	.	.	.	.	.	.
.	32b	.	.	.	.	.	.	.	.	.	.	.	.
.	32a	.	.	.	.	.	.	.	.	.	.	.	.
=7	=7	=7	=7	=7	=7	=7	=7	=7	=7	=7	=7	=7	=7
2r	16g#	16B	16E	16E	16E	2r	2r	2r	2r	2r	2r	2r	2r
.	16r	16r	16r	16r	16r	.	.	.	.	.	.	.	.
.	16g	16c#	16A	16A	16A	.	.	.	.	.	.	.	.
.	16r	16r	16r	16r	16r	.	.	.	.	.	.	.	.
.	16f#	16d	16D	16D	16D	.	.	.	.	.	.	.	.
.	16r	16r	16r	16r	16r	.	.	.	.	.	.	.	.
.	24e	16.B	16G	16GG	16GG	.	.	.	.	.	.	.	.
.	24g	.	.	.	.	.	.	.	.	.	.	.	.
.	.	.	16r	16r	16r	.	.	.	.	.	.	.	.
.	24b	.	.	.	.	.	.	.	.	.	.	.	.
.	.	32e	.	.	.	.	.	.	.	.	.	.	.
=8	=8	=8	=8	=8	=8	=8	=8	=8	=8	=8	=8	=8	=8
2r	4d	4d	4F#	8AA	8AA	2r	2r	2r	2r	2r	2r	2r	2r
.	.	.	.	8A	8A	.	.	.	.	.	.	.	.
.	16c#	16c#	8E	8AA	8AA	.	.	.	.	.	.	.	.
.	16d	16d	.	.	.	.	.	.	.	.	.	.	.
.	16e	16e	8r	8r	8r	.	.	.	.	.	.	.	.
.	16e#	16e#	.	.	.	.	.	.	.	.	.	.	.
=9	=9	=9	=9	=9	=9	=9	=9	=9	=9	=9	=9	=9	=9
8.ff#	8.f#	8.f#	4A	4A	4D	2r	2r	2r	2r	2r	2r	2r	2r
32ee	32e	32e	.	.	.	.	.	.	.	.	.	.	.
32ff#	32f#	32f#	.	.	.	.	.	.	.	.	.	.	.
8gg	8g	8g	8B	8B	8GG	.	.	.	.	.	.	.	.
16.ee	16.e	16.e	8G	8G	8AA	.	.	.	.	.	.	.	.
32cc#	32c#	32c#	.	.	.	.	.	.	.	.	.	.	.
=10	=10	=10	=10	=10	=10	=10	=10	=10	=10	=10	=10	=10	=10
8dd	8d	8d	4F#	4F#	4D	2r	2r	2r	2r	4r	4r	2r	2r
8ff#	8f#	8f#	.	.	.	.	.	.	.	.	.	.	.
16aa	16a	16a	4r	4r	4r	.	.	.	.	16r	16r	.	.
8.r	8.r	8.r	.	.	.	.	.	.	.	16cc	16c	.	.
.	.	.	.	.	.	.	.	.	.	16ee	16e	.	.
.	.	.	.	.	.	.	.	.	.	16gg	16g	.	.
=11	=11	=11	=11	=11	=11	=11	=11	=11	=11	=11	=11	=11	=11
8.aa	8.a	8d	4F#	4F#	[2D	2r	2r	2r	2r	[2cc	[2cc	2r	2r
.	.	8c	.	.	.	.	.	.	.	.	.	.	.
32gg	32g	.	.	.	.	.	.	.	.	.	.	.	.
32aa	32a	.	.	.	.	.	.	.	.	.	.	.	.
16bb	16b	8.B	8.G	8.G	.	.	.	.	.	.	.	.	.
16ccc#	16cc#	.	.	.	.	.	.	.	.	.	.	.	.
16ddd	16dd	.	.	.	.	.	.	.	.	.	.	.	.
16bb	16b	16c#	16A	16A	.	.	.	.	.	.	.	.	.
=12	=12	=12	=12	=12	=12	=12	=12	=12	=12	=12	=12	=12	=12
8aa	8a	8d	8B	8B	4D_	2r	2r	2r	2r	8cc]	8cc]	2r	2r
16gg	16g	8e	8c#	8c#	.	.	.	.	.	8dd	8g	.	.
32ff#	32f#	.	.	.	.	.	.	.	.	.	.	.	.
32gg	32g	.	.	.	.	.	.	.	.	.	.	.	.
8ff#	8f#	8A	8d	8d	8D]	.	.	.	.	16ee	16e	.	.
.	.	.	.	.	.	.	.	.	.	16gg	16g	.	.
8r	8r	8r	8r	8r	8r	.	.	.	.	16ee	16e	.	.
.	.	.	.	.	.	.	.	.	.	16cc	16c	.	.
=13	=13	=13	=13	=13	=13	=13	=13	=13	=13	=13	=13	=13	=13
[2aa	8.e	8c#	4G	4G	4G	2r	2r	4e	4c#	[2g	[2G	2r	2r
.	.	8A	.	.	.	.	.	.	.	.	.	.	.
.	32f#	.	.	.	.	.	.	.	.	.	.	.	.
.	32g	.	.	.	.	.	.	.	.	.	.	.	.
.	16b	8d	4F#	4F#	4F#	.	.	8f#	8d	.	.	.	.
.	16a	.	.	.	.	.	.	.	.	.	.	.	.
.	16g	8A	.	.	.	.	.	8r	8r	.	.	.	.
.	16f#	.	.	.	.	.	.	.	.	.	.	.	.
=14	=14	=14	=14	=14	=14	=14	=14	=14	=14	=14	=14	=14	=14
6..aa_	16e	8c#	4G	4G	4G	2r	2r	4e	4c#	4.g]	4.G]	2r	2r
.	32f#	.	.	.	.	.	.	.	.	.	.	.	.
.	32g	.	.	.	.	.	.	.	.	.	.	.	.
.	32a	8A	.	.	.	.	.	.	.	.	.	.	.
.	32b	.	.	.	.	.	.	.	.	.	.	.	.
.	32cc#	.	.	.	.	.	.	.	.	.	.	.	.
.	32dd	.	.	.	.	.	.	.	.	.	.	.	.
.	32ee	8d	4F#	4F#	4F#	.	.	8f#	8d	.	.	.	.
.	32dd	.	.	.	.	.	.	.	.	.	.	.	.
48aa]	.	.	.	.	.	.	.	.	.	.	.	.	.
32bb	32ff#	.	.	.	.	.	.	.	.	.	.	.	.
32ccc#	32ee	.	.	.	.	.	.	.	.	.	.	.	.
32ddd	32dd	8A	.	.	.	.	.	8r	8r	8r	8r	.	.
32ccc#	32cc#	.	.	.	.	.	.	.	.	.	.	.	.
32bb	32b	.	.	.	.	.	.	.	.	.	.	.	.
32aa]	32a	.	.	.	.	.	.	.	.	.	.	.	.
=15	=15	=15	=15	=15	=15	=15	=15	=15	=15	=15	=15	=15	=15
16gg#	16g#	16B	16E	16E	16E	2r	2r	2r	2r	2r	2r	2r	2r
16r	16r	16r	16r	16r	16r	.	.	.	.	.	.	.	.
16gg	16g	16c#	16A	16AA	16AA	.	.	.	.	.	.	.	.
16r	16r	16r	16r	16r	16r	.	.	.	.	.	.	.	.
16ff#	16f#	16d	16D	16D	16D	.	.	.	.	.	.	.	.
16r	16r	16r	16r	16r	16r	.	.	.	.	.	.	.	.
24ee	24e	16.B	16G	16GG	16GG	.	.	.	.	.	.	.	.
24gg	24g	.	.	.	.	.	.	.	.	.	.	.	.
.	.	.	16r	16r	16r	.	.	.	.	.	.	.	.
24bb	24b	.	.	.	.	.	.	.	.	.	.	.	.
.	.	32e	.	.	.	.	.	.	.	.	.	.	.
=16	=16	=16	=16	=16	=16	=16	=16	=16	=16	=16	=16	=16	=16
8.dd	8.d	8.d	4F#	8AA	8AA	2r	2r	2r	2r	2r	2r	2r	2r
.	.	.	.	8A	8A	.	.	.	.	.	.	.	.
32ee	32e	32e	.	.	.	.	.	.	.	.	.	.	.
32dd	32d	32d	.	.	.	.	.	.	.	.	.	.	.
8cc#	16c#	8c#	8E	8AA	8AA	.	.	.	.	.	.	.	.
.	16A	.	.	.	.	.	.	.	.	.	.	.	.
8r	16c#	8r	8r	8r	8r	.	.	.	.	.	.	.	.
.	16e	.	.	.	.	.	.	.	.	.	.	.	.
=17	=17	=17	=17	=17	=17	=17	=17	=17	=17	=17	=17	=17	=17
2r	8a	8c#	8e	8AA	8AA	2r	2r	2r	2r	2r	2r	2r	2r
.	8g#	8d	8d	8BB	8BB	.	.	.	.	.	.	.	.
.	8g	8e	8A	8C#	8C#	.	.	.	.	.	.	.	.
.	8r	8r	8r	8r	8r	.	.	.	.	.	.	.	.
=18	=18	=18	=18	=18	=18	=18	=18	=18	=18	=18	=18	=18	=18
2r	16f#	16d	4d	4D	4D	2r	2r	2r	2r	2r	2r	2r	2r
.	16ff#	16dd	.	.	.	.	.	.	.	.	.	.	.
.	16ee	16cc#	.	.	.	.	.	.	.	.	.	.	.
.	16dd	16b	.	.	.	.	.	.	.	.	.	.	.
.	8cc#	8a	8e	8E	8E	.	.	.	.	.	.	.	.
.	16b	16g#	8r	8r	8r	.	.	.	.	.	.	.	.
.	16r	16r	.	.	.	.	.	.	.	.	.	.	.
=19	=19	=19	=19	=19	=19	=19	=19	=19	=19	=19	=19	=19	=19
2r	8ee	8b	8g#	8G#	8G#	2r	2r	2r	2r	2r	2r	2r	2r
.	16dd#	16cc	16a	16A	16A	.	.	.	.	.	.	.	.
.	16r	16r	16r	16r	16r	.	.	.	.	.	.	.	.
.	8dd	8g#	8b	8B	8B	.	.	.	.	.	.	.	.
.	16cc#	16a	16a	16A	16A	.	.	.	.	.	.	.	.
.	16r	16r	16r	16r	16r	.	.	.	.	.	.	.	.
=20	=20	=20	=20	=20	=20	=20	=20	=20	=20	=20	=20	=20	=20
2r	8b	8f#	8f#	8D	8D	2r	2r	2r	2r	2r	2r	2r	2r
.	24dd	8d	8B	8E	8E	.	.	.	.	.	.	.	.
.	24b	.	.	.	.	.	.	.	.	.	.	.	.
.	24g#	.	.	.	.	.	.	.	.	.	.	.	.
.	[4a	8c#	8c#	8AA	[4AA	.	.	.	.	.	.	.	.
.	.	24a	8F#	8F#	.	.	.	.	.	.	.	.	.
.	.	24f#	.	.	.	.	.	.	.	.	.	.	.
.	.	24d#	.	.	.	.	.	.	.	.	.	.	.
=21	=21	=21	=21	=21	=21	=21	=21	=21	=21	=21	=21	=21	=21
2r	8a]	8c	8D#	8D#	2AA_	2r	2r	2r	2r	2r	2r	2r	2r
.	8g#	8B	8E	8E	.	.	.	.	.	.	.	.	.
.	8g	8B-	8C#	8C#	.	.	.	.	.	.	.	.	.
.	8f#	8A	8D	8D	.	.	.	.	.	.	.	.	.
=22	=22	=22	=22	=22	=22	=22	=22	=22	=22	=22	=22	=22	=22
2r	8.f	4G#	4D	4BB	4.AA]	2r	2r	2r	2r	2r	2r	2r	2r
.	32e	.	.	.	.	.	.	.	.	.	.	.	.
.	32d	.	.	.	.	.	.	.	.	.	.	.	.
.	32c#	8A	8E	8AA	.	.	.	.	.	.	.	.	.
.	32A	.	.	.	.	.	.	.	.	.	.	.	.
.	32G#	.	.	.	.	.	.	.	.	.	.	.	.
.	32A	.	.	.	.	.	.	.	.	.	.	.	.
.	32B	8r	8r	8r	8r	.	.	.	.	.	.	.	.
.	32c#	.	.	.	.	.	.	.	.	.	.	.	.
.	32d	.	.	.	.	.	.	.	.	.	.	.	.
.	32e	.	.	.	.	.	.	.	.	.	.	.	.
=23	=23	=23	=23	=23	=23	=23	=23	=23	=23	=23	=23	=23	=23
2r	8.f#	8.f#	4A	4A	4D	8.ff#	2r	2r	2r	2r	2r	2r	2r
.	32e	32e	.	.	.	32ee	.	.	.	.	.	.	.
.	32f#	32f#	.	.	.	32ff#	.	.	.	.	.	.	.
.	8g	8g	8B	8B	8GG	8gg	.	.	.	.	.	.	.
.	16.e	16.e	8G	8G	8AA	16.ee	.	.	.	.	.	.	.
.	32c#	32c#	.	.	.	32cc#	.	.	.	.	.	.	.
=24	=24	=24	=24	=24	=24	=24	=24	=24	=24	=24	=24	=24	=24
2r	8d	8d	4F#	4F#	4D	8dd	2r	2r	2r	2r	2r	2r	2r
.	8f#	8f#	.	.	.	8ff#	.	.	.	.	.	.	.
.	16a	16a	4r	4r	4r	8.aa	.	.	.	.	.	.	.
.	8.r	8.r	.	.	.	.	.	.	.	.	.	.	.
.	.	.	.	.	.	16aa#	.	.	.	.	.	.	.
=25	=25	=25	=25	=25	=25	=25	=25	=25	=25	=25	=25	=25	=25
2r	8.a	8d#	4F#	4F#	4F#	4..bb	2r	2r	2r	2r	2r	2r	2r
.	.	8B	.	.	.	.	.	.	.	.	.	.	.
.	32g#	.	.	.	.	.	.	.	.	.	.	.	.
.	32a	.	.	.	.	.	.	.	.	.	.	.	.
.	16cc	8e	4G	4G	4G	.	.	.	.	.	.	.	.
.	16b	.	.	.	.	.	.	.	.	.	.	.	.
.	16a	8B	.	.	.	.	.	.	.	.	.	.	.
.	16g	.	.	.	.	16bb-	.	.	.	.	.	.	.
=26	=26	=26	=26	=26	=26	=26	=26	=26	=26	=26	=26	=26	=26
2r	32g	8c#	4E	4E	4E	4.aa	2r	2r	2r	2r	2r	2r	2r
.	32e	.	.	.	.	.	.	.	.	.	.	.	.
.	32f#	.	.	.	.	.	.	.	.	.	.	.	.
.	32g	.	.	.	.	.	.	.	.	.	.	.	.
.	32a	4A	.	.	.	.	.	.	.	.	.	.	.
.	32b	.	.	.	.	.	.	.	.	.	.	.	.
.	32cc#	.	.	.	.	.	.	.	.	.	.	.	.
.	32dd	.	.	.	.	.	.	.	.	.	.	.	.
.	32ee	.	4F#	4F#	4F#	.	.	.	.	.	.	.	.
.	32dd	.	.	.	.	.	.	.	.	.	.	.	.
.	32ff#	.	.	.	.	.	.	.	.	.	.	.	.
.	32ee	.	.	.	.	.	.	.	.	.	.	.	.
.	32dd	[8d	.	.	.	32ddd	.	.	.	.	.	.	.
.	32cc#	.	.	.	.	32ccc#	.	.	.	.	.	.	.
.	32b	.	.	.	.	32bb	.	.	.	.	.	.	.
.	32a	.	.	.	.	32aa	.	.	.	.	.	.	.
=27	=27	=27	=27	=27	=27	=27	=27	=27	=27	=27	=27	=27	=27
2r	16a#	8.d]	4.D	8G	8G	16aa#	2r	2r	2r	2r	2r	2r	2r
.	8b	.	.	.	.	8bb	.	.	.	.	.	.	.
.	.	.	.	8GG	8GG	.	.	.	.	.	.	.	.
.	32g	16e	.	.	.	32gg	.	.	.	.	.	.	.
.	32e	.	.	.	.	32ee	.	.	.	.	.	.	.
.	16.a	8f#	.	8AA	8AA	16.aa	.	.	.	.	.	.	.
.	32g#	.	.	.	.	32gg#	.	.	.	.	.	.	.
.	24g	8e	8G	8AA	8AA	24gg	.	.	.	.	.	.	.
.	24e	.	.	.	.	24ee	.	.	.	.	.	.	.
.	24c#	.	.	.	.	24cc#	.	.	.	.	.	.	.
=28	=28	=28	=28	=28	=28	=28	=28	=28	=28	=28	=28	=28	=28
2r	4e	4e	4G	8D	8D	4ee	2r	2r	2r	2r	2r	2r	2r
.	.	.	.	8AA	8AA	.	.	.	.	.	.	.	.
.	8d	8d	8F#	8DD	8DD	8dd	.	.	.	.	.	.	.
.	8r	8r	8r	8r	8r	8r	.	.	.	.	.	.	.
=29	=29	=29	=29	=29	=29	=29	=29	=29	=29	=29	=29	=29	=29
8aa	8a	8c#	8e	8AA	8AA	2r	2r	8c#	8A	2r	2r	2r	2r
8gg#	8g#	8d	8d	8BB	8BB	.	.	8d	8B	.	.	.	.
8gg	8g	8e	8A	8C#	8C#	.	.	8e	8c#	.	.	.	.
8r	8r	8r	8r	8r	8r	.	.	8r	8r	.	.	.	.
=30	=30	=30	=30	=30	=30	=30	=30	=30	=30	=30	=30	=30	=30
16ff#	16f#	16d	4d	4D	4D	2r	2r	16f#	16d	2r	2r	2r	2r
16fff#	16ff#	16dd	.	.	.	.	.	16f#	16d	.	.	.	.
16eee	16ee	16cc#	.	.	.	.	.	16e	16c#	.	.	.	.
16ddd	16dd	16b	.	.	.	.	.	16d	16B	.	.	.	.
8ccc#	8cc#	8a	8e	8E	8E	.	.	8c#	8A	.	.	.	.
16bb	16b	16g#	8r	8r	8r	.	.	16B	16G#	.	.	.	.
16r	16r	16r	.	.	.	.	.	16r	16r	.	.	.	.
=31	=31	=31	=31	=31	=31	=31	=31	=31	=31	=31	=31	=31	=31
8eee	8ee	8b	8g#	8G#	8G#	2r	2r	2r	2r	2r	2r	2r	2r
16ddd#	16dd#	16cc	16a	16A	16A	.	.	.	.	.	.	.	.
16r	16r	16r	16r	16r	16r	.	.	.	.	.	.	.	.
8ddd	8dd	8g#	8b	8B	8B	.	.	.	.	.	.	.	.
16ccc#	16cc#	16a	16a	16A	16A	.	.	.	.	.	.	.	.
16r	16r	16r	16r	16r	16r	.	.	.	.	.	.	.	.
=32	=32	=32	=32	=32	=32	=32	=32	=32	=32	=32	=32	=32	=32
8bb	8b	8f#	8f#	8D	8D	2r	2r	2r	2r	2r	2r	2r	2r
24ddd	24dd	8d	8B	8E	8E	.	.	.	.	.	.	.	.
24bb	24b	.	.	.	.	.	.	.	.	.	.	.	.
24gg#	24g#	.	.	.	.	.	.	.	.	.	.	.	.
[4aa	[4a	8c#	8c#	8AA	[4AA	.	.	.	.	.	.	.	.
.	.	24a	8F#	8F#	.	.	.	.	.	.	.	.	.
.	.	24f#	.	.	.	.	.	.	.	.	.	.	.
.	.	24d#	.	.	.	.	.	.	.	.	.	.	.
=33	=33	=33	=33	=33	=33	=33	=33	=33	=33	=33	=33	=33	=33
8aa]	8a]	8c	8D#	8D#	2AA_	2r	2r	24F#	24F#	2r	2r	2r	2r
.	.	.	.	.	.	.	.	24A	24A	.	.	.	.
.	.	.	.	.	.	.	.	24c	24c	.	.	.	.
8gg#	8g#	8B	8E	8E	.	.	.	8B	8B	.	.	.	.
8gg	8g	8B-	8C#	8C#	.	.	.	24E	24E	.	.	.	.
.	.	.	.	.	.	.	.	24G	24G	.	.	.	.
.	.	.	.	.	.	.	.	24B-	24B-	.	.	.	.
8ff#	8f#	8A	8D	8D	.	.	.	8A	8A	.	.	.	.
=34	=34	=34	=34	=34	=34	=34	=34	=34	=34	=34	=34	=34	=34
8.ff	8.f	4G#	4D	4BB	4.AA]	2r	2r	8GG#	8GG#	2r	2r	2r	2r
.	.	.	.	.	.	.	.	8d	8d	.	.	.	.
32ee	32e	.	.	.	.	.	.	.	.	.	.	.	.
32dd	32d	.	.	.	.	.	.	.	.	.	.	.	.
32cc#	32c#	8A	8E	8AA	.	.	.	8e	8e	.	.	.	.
32a	32A	.	.	.	.	.	.	.	.	.	.	.	.
32g#	32G#	.	.	.	.	.	.	.	.	.	.	.	.
32a	32A	.	.	.	.	.	.	.	.	.	.	.	.
32b	32B	8r	8r	8r	8r	.	.	8r	8r	.	.	.	.
32cc#	32c#	.	.	.	.	.	.	.	.	.	.	.	.
32dd	32d	.	.	.	.	.	.	.	.	.	.	.	.
32ee	32e	.	.	.	.	.	.	.	.	.	.	.	.
=35	=35	=35	=35	=35	=35	=35	=35	=35	=35	=35	=35	=35	=35
8.ff#	8.f#	8.f#	4A	4A	4D	2r	2r	2r	2r	2r	2r	2r	2r
32ee	32e	32e	.	.	.	.	.	.	.	.	.	.	.
32ff#	32f#	32f#	.	.	.	.	.	.	.	.	.	.	.
8gg	8g	8g	8B	8B	8GG	.	.	.	.	.	.	.	.
16.ee	16.e	16.e	8G	8G	8AA	.	.	.	.	.	.	.	.
32cc#	32c#	32c#	.	.	.	.	.	.	.	.	.	.	.
=36	=36	=36	=36	=36	=36	=36	=36	=36	=36	=36	=36	=36	=36
8dd	8d	8d	4F#	4F#	4D	2r	2r	2r	2r	2r	2r	2r	2r
8ff#	8f#	8f#	.	.	.	.	.	.	.	.	.	.	.
8.aa	16a	16a	4r	4r	4r	.	.	.	.	.	.	.	.
.	8.r	8.r	.	.	.	.	.	.	.	.	.	.	.
16aa#	.	.	.	.	.	.	.	.	.	.	.	.	.
=37	=37	=37	=37	=37	=37	=37	=37	=37	=37	=37	=37	=37	=37
4..bb	8.a	8d#	4F#	4F#	4F#	2r	2r	4d#	4BB	2r	2r	2r	2r
.	.	8B	.	.	.	.	.	.	.	.	.	.	.
.	32g#	.	.	.	.	.	.	.	.	.	.	.	.
.	32a	.	.	.	.	.	.	.	.	.	.	.	.
.	16cc	8e	4G	4G	4G	.	.	8e	8EE	.	.	.	.
.	16b	.	.	.	.	.	.	.	.	.	.	.	.
.	16a	8B	.	.	.	.	.	8r	8r	.	.	.	.
16bb-	16g	.	.	.	.	.	.	.	.	.	.	.	.
=38	=38	=38	=38	=38	=38	=38	=38	=38	=38	=38	=38	=38	=38
4.aa	32g	8c#	4E	4E	4E	2r	2r	4c#	4AA	4dd	4g	2r	2r
.	32e	.	.	.	.	.	.	.	.	.	.	.	.
.	32f#	.	.	.	.	.	.	.	.	.	.	.	.
.	32g	.	.	.	.	.	.	.	.	.	.	.	.
.	32a	4A	.	.	.	.	.	.	.	.	.	.	.
.	32b	.	.	.	.	.	.	.	.	.	.	.	.
.	32cc#	.	.	.	.	.	.	.	.	.	.	.	.
.	32dd	.	.	.	.	.	.	.	.	.	.	.	.
.	32ee	.	4F#	4F#	4F#	.	.	8d	8DD	8ee	8cc	.	.
.	32dd	.	.	.	.	.	.	.	.	.	.	.	.
.	32ff#	.	.	.	.	.	.	.	.	.	.	.	.
.	32ee	.	.	.	.	.	.	.	.	.	.	.	.
32ddd	32dd	[8d	.	.	.	.	.	8r	8r	8r	8r	.	.
32ccc#	32cc#	.	.	.	.	.	.	.	.	.	.	.	.
32bb	32b	.	.	.	.	.	.	.	.	.	.	.	.
32aa	32a	.	.	.	.	.	.	.	.	.	.	.	.
=39	=39	=39	=39	=39	=39	=39	=39	=39	=39	=39	=39	=39	=39
16aa#	16a#	8.d]	4.D	4G	4G	2r	2r	2r	2r	2r	2r	2r	2r
8bb	8b	.	.	.	.	.	.	.	.	.	.	.	.
32gg	32g	16e	.	.	.	.	.	.	.	.	.	.	.
32ee	32e	.	.	.	.	.	.	.	.	.	.	.	.
16.aa	16.a	8f#	.	8A	8A	.	.	.	.	.	.	.	.
32gg#	32g#	.	.	.	.	.	.	.	.	.	.	.	.
24gg	24g	8e	8G	8AA	8AA	.	.	.	.	.	.	.	.
24ee	24e	.	.	.	.	.	.	.	.	.	.	.	.
24cc#	24c#	.	.	.	.	.	.	.	.	.	.	.	.
=40	=40	=40	=40	=40	=40	=40	=40	=40	=40	=40	=40	=40	=40
16dd	16d	16d	16d	16D	16D	16ff	16a	16F	16D	16gg	16cc	16dd	16D
16ddd	16dd 16ff	16ff 16dd	16f 16A	16D	16D	16ff	16a	16A	16F	16gg	16cc	16dd	16D
16ddd	16r	16r	16f 16A	16D	16D	16ff	16a	16F	16D	16gg	16cc	16dd	16D
16ddd	16aa	16ff 16dd	16f 16A	16D	16D	16ff	16a	16A	16F	16gg	16cc	16dd	16D
16ddd	16r	16r	16f 16A	16D	16D	16ff	16a	16F	16D	16gg	16cc	16dd	16D
16ddd	16ddd	16dd 16ff	16f 16A	16D	16D	16ff	16a	16A	16F	16gg	16cc	16dd	16D
16ddd	16r	16r	16f 16A	16D	16D	16ff	16a	16F	16D	16gg	16cc	16dd	16D
16ddd	16dd	16f	16f 16A	16D	16D	16dd	16a	16A	16F	16gg	16cc	16dd	16D
=41	=41	=41	=41	=41	=41	=41	=41	=41	=41	=41	=41	=41	=41
8ccc#	16cc#	16g	16e 16A	16E	16E	8cc#	8g	8G	8E	8gg	8g	8g	8GG
.	16b-	16g	16d	16d	16d	.	.	.	.	.	.	.	.
4.r	16a	16g	16e	16c#	16c#	4.r	4.r	4.r	4.r	4.r	4.r	4.r	4.r
.	16b-	16g	16d	16d	16d	.	.	.	.	.	.	.	.
.	16a	16g	16e	16c#	16c#	.	.	.	.	.	.	.	.
.	16b-	16g	16d	16d	16d	.	.	.	.	.	.	.	.
.	16a	16g	16e	16c#	16c#	.	.	.	.	.	.	.	.
.	16g	16e	16A	16A	16A	.	.	.	.	.	.	.	.
=42	=42	=42	=42	=42	=42	=42	=42	=42	=42	=42	=42	=42	=42
16ddd	16f	16d	16d	16D	16D	16ff	16a	16F	16D	16gg	16cc	16dd	16D
16ddd	16ff	16dd 16ff	16f 16A	16D	16D	16ff	16a	16A	16F	16gg	16cc	16dd	16D
16ddd	16r	16r	16f 16A	16D	16D	16ff	16a	16F	16D	16gg	16cc	16dd	16D
16ddd	16aa	16ff 16dd	16f 16A	16D	16D	16ff	16a	16A	16F	16gg	16cc	16dd	16D
16ddd	16r	16r	16f 16A	16D	16D	16ff	16a	16F	16D	16gg	16cc	16dd	16D
16ddd	16ddd	16ff 16dd	16f 16A	16D	16D	16ff	16a	16A	16F	16gg	16cc	16dd	16D
16ddd	16r	16r	16f 16A	16D	16D	16ff	16a	16F	16D	16gg	16cc	16dd	16D
16d	16d	16d	16d	16D	16D	16d	16d	16D	16D	16gg	16cc	16dd	16D
=43	=43	=43	=43	=43	=43	=43	=43	=43	=43	=43	=43	=43	=43
16e-	16e-	16e-	16e-	16E-	16E-	16e-	16e-	16E-	16E-	8ff	8ff	8g	8GG
16gg	16gg	16b-	16e-	16E-	16E-	16gg	16b-	16E-	16E-	.	.	.	.
16ff	16r	16r	16c	16E-	16E-	16aa	16cc	16E-	16E-	4.r	4.r	4.r	4.r
16ff	16aa	16cc	16f	16E-	16E-	16aa	16cc	16E-	16E-	.	.	.	.
16ff	16r	16r	16f	16D	16D	16bb-	16f	16D	16D	.	.	.	.
16ff	16bb-	16f	16f	16D	16D	16bb-	16f	16D	16D	.	.	.	.
16ff	16r	16r	16a-	16D-	16D-	16bb	16a-	16D-	16D-	.	.	.	.
16ff	16bb	16f	16a-	16D-	16D-	16bb	16a-	16D-	16D-	.	.	.	.
=44	=44	=44	=44	=44	=44	=44	=44	=44	=44	=44	=44	=44	=44
16aa	16ccc	16r	16a	16C	16C	16ccc	16a	16C	16C	2r	2r	2r	2r
16aa	16ff	16a	16cc	16C	16C	16ff	16a	16c	16c	.	.	.	.
16aa	16ff	16a	16a	16C	16C	16ff	16a	16A	16A	.	.	.	.
16aa	16ff	16a	16f	16C	16C	16ff	16a	16F	16F	.	.	.	.
16aa	16ff	16a	16c	16C	16C	16ff	16a	16C	16C	.	.	.	.
8bb-	8gg	8b-	16c	16C	16C	8gg	8b-	16C	16C	.	.	.	.
.	.	.	16c	16C	16C	.	.	16C	16C	.	.	.	.
32gg	32ee	16b-	16g	16C	16C	32ee	16b-	16C	16C	.	.	.	.
32ee	32cc	.	.	.	.	32cc	.	.	.	.	.	.	.
=45	=45	=45	=45	=45	=45	=45	=45	=45	=45	=45	=45	=45	=45
8ff	16ff	16a	8f	16F	16F	8ff	8a	8F	8F	2r	2r	2r	2r
.	16f	16c	.	16A	16A	.	.	.	.	.	.	.	.
4.r	16f	16c	4.r	16A	16A	4.r	4.r	4.r	4.r	.	.	.	.
.	16f	16c	.	16A	16A	.	.	.	.	.	.	.	.
.	16f	16c	.	16A	16A	.	.	.	.	.	.	.	.
.	8g	16c	.	16B-	16B-	.	.	.	.	.	.	.	.
.	.	16c	.	16B-	16B-	.	.	.	.	.	.	.	.
.	32e	16c	.	16B-	16B-	.	.	.	.	.	.	.	.
.	32c	.	.	.	.	.	.	.	.	.	.	.	.
=46	=46	=46	=46	=46	=46	=46	=46	=46	=46	=46	=46	=46	=46
2r	16f	16c	2r	16A	16A	2r	2r	2r	2r	2r	2r	2r	2r
.	8g	16c	.	16B-	16B-	.	.	.	.	.	.	.	.
.	.	16c	.	16B-	16B-	.	.	.	.	.	.	.	.
.	32e	16c	.	16B-	16B-	.	.	.	.	.	.	.	.
.	32c	.	.	.	.	.	.	.	.	.	.	.	.
.	16a	16c	.	16F	16F	.	.	.	.	.	.	.	.
.	8b-	8d	.	16BB-	16BB-	.	.	.	.	.	.	.	.
.	.	.	.	16C	16C	.	.	.	.	.	.	.	.
.	32g	32B-	.	16C	16C	.	.	.	.	.	.	.	.
.	32e	32G	.	.	.	.	.	.	.	.	.	.	.
=47	=47	=47	=47	=47	=47	=47	=47	=47	=47	=47	=47	=47	=47
2r	16f	16A	4r	8F	8F	2r	2r	6..r	6..r	2r	2r	2r	2r
.	16a	16f	.	.	.	.	.	.	.	.	.	.	.
.	16cc	16a	.	8.r	8.r	.	.	.	.	.	.	.	.
.	16a	16f	.	.	.	.	.	.	.	.	.	.	.
.	16aa	16ff	16r	.	.	.	.	.	.	.	.	.	.
.	.	.	.	.	.	.	.	48r	48r	.	.	.	.
.	8.r	8.r	16g	16G	16G	.	.	16G	16G	.	.	.	.
.	.	.	16f	16F	16F	.	.	16F	16F	.	.	.	.
.	.	.	16e	16E	16E	.	.	16E	16E	.	.	.	.
=48	=48	=48	=48	=48	=48	=48	=48	=48	=48	=48	=48	=48	=48
16ddd	16d	16d	16d	16D	16D	16ff	16a	16f	16d	16gg	16cc	16dd	16D
32ddd	16dd 16ff	16ff 16dd	16f 16A	16d	16d	32ff	32a	32f	32d	32gg	32cc	32dd	32D
32ddd	.	.	.	.	.	32ff	32a	32f	32d	32gg	32cc	32dd	32D
16ddd	16r	16r	16f 16A	16D	16D	16ff	16a	16f	16d	16gg	16cc	16dd	16D
32ddd	16aa	16ff 16a 16d	16A 16f	16d	16d	32ff	32a	32f	32d	32gg	32cc	32dd	32D
32ddd	.	.	.	.	.	32ff	32a	32f	32d	32gg	32cc	32dd	32D
16ddd	16r	16r	16f 16A	16D	16D	16ff	16a	16f	16d	16gg	16cc	16dd	16D
32ddd	16ddd	16ff 16d 16a	16f 16A	16d	16d	32ff	32a	32f	32d	32gg	32cc	32dd	32D
32ddd	.	.	.	.	.	32ff	32a	32f	32d	32gg	32cc	32dd	32D
16ddd	16r	16r	16f 16A	16D	16D	16ff	16a	16f	16d	16gg	16cc	16dd	16D
32ddd	16dd	16f	16f 16A	16d	16d	32ff	32a	32f	32d	32gg	32cc	32dd	32D
32ddd	.	.	.	.	.	32ff	32a	32f	32d	32gg	32cc	32dd	32D
=49	=49	=49	=49	=49	=49	=49	=49	=49	=49	=49	=49	=49	=49
8ccc#	16cc#	16e	16e 16A	16e	16e	8ee	8a	8e	8c#	8gg	8g	8g	8GG
.	16b-	16g	16d	16d	16d	.	.	.	.	.	.	.	.
4.r	16a	16g	16e	16c#	16c#	4.r	4.r	4.r	4.r	4.r	4.r	4.r	4.r
.	16b-	16g	16d	16d	16d	.	.	.	.	.	.	.	.
.	16a	16g	16e	16c#	16c#	.	.	.	.	.	.	.	.
.	16b-	16g	16d	16d	16d	.	.	.	.	.	.	.	.
.	16a	16g	16e	16c#	16c#	.	.	.	.	.	.	.	.
.	16g	16e	16c#	16A	16A	.	.	.	.	.	.	.	.
=50	=50	=50	=50	=50	=50	=50	=50	=50	=50	=50	=50	=50	=50
16ddd	16f	16d	16d	16d	16d	16ff	16a	16f	16d	16gg	16cc	16dd	16D
32ddd	16ff	16dd 16ff	16f 16A	16D	16D	32ff	32a	32f	32d	32gg	32cc	32dd	32D
32ddd	.	.	.	.	.	32ff	32a	32f	32d	32gg	32cc	32dd	32D
16ddd	16r	16r	16A 16f	16d	16d	16ff	16a	16f	16d	16gg	16cc	16dd	16D
32ddd	16aa	16ff 16a 16d	16A 16f	16D	16D	32ff	32a	32f	32d	32gg	32cc	32dd	32D
32ddd	.	.	.	.	.	32ff	32a	32f	32d	32gg	32cc	32dd	32D
16ddd	16r	16r	16f 16A	16d	16d	16ff	16a	16f	16d	16gg	16cc	16dd	16D
32ddd	16ddd	16ff 16d 16a	16A 16f	16D	16D	32ff	32a	32f	32d	32gg	32cc	32dd	32D
32ddd	.	.	.	.	.	32ff	32a	32f	32d	32gg	32cc	32dd	32D
16ddd	16r	16r	16f 16A	16d	16d	16ff	16dd	16f	16d	16gg	16cc	16dd	16D
32ddd	16d	16d	16d	16D	16D	32ff	32dd	32f	32d	32gg	32cc	32dd	32D
32ddd	.	.	.	.	.	32ff	32dd	32f	32d	32gg	32cc	32dd	32D
=51	=51	=51	=51	=51	=51	=51	=51	=51	=51	=51	=51	=51	=51
16gg	16e-	16e-	16e-	16E-	16E-	16gg	16b-	16e-	16e-	8ff	8ff	8g	8GG
32gg	16gg	16b-	16e-	16e-	16e-	32gg	32b-	32e-	32e-	.	.	.	.
32gg	.	.	.	.	.	32gg	32b-	32e-	32e-	.	.	.	.
16ff	16r	16r	16c	16E-	16E-	16aa	16cc	16e-	16e-	4.r	4.r	4.r	4.r
32ff	16aa	16cc	16f	16E-	16E-	32aa	32cc	32e-	32e-	.	.	.	.
32ff	.	.	.	.	.	32aa	32cc	32e-	32e-	.	.	.	.
16ff	16r	16r	16f	16D	16D	16bb-	16f	16d	16d	.	.	.	.
32ff	16bb-	16f	16f	16d	16d	32bb-	32f	32d	32d	.	.	.	.
32ff	.	.	.	.	.	32bb-	32f	32d	32d	.	.	.	.
16ff	16r	16r	16a-	16D-	16D-	16bb	16a-	16d-	16d-	.	.	.	.
32ff	16bb	16f	16a-	16D-	16D-	32bb	32a-	32d-	32d-	.	.	.	.
32ff	.	.	.	.	.	32bb	32a-	32d-	32d-	.	.	.	.
=52	=52	=52	=52	=52	=52	=52	=52	=52	=52	=52	=52	=52	=52
16ff	16ccc	16r	16a	16C	16C	16ccc	16a	16c	16c	2r	2r	2r	2r
16aa	16ff	16a	16cc	16c	16c	16ff	16a	16c	16c	.	.	.	.
16aa	16ff	16a	16a	16C	16C	16ff	16a	16c	16c	.	.	.	.
16aa	16ff	16a	16f	16C	16C	16ff	16a	16c	16c	.	.	.	.
16aa	16ff	16a	16c	16C	16C	16ff	16a	16c	16c	.	.	.	.
8bb-	8gg	8b-	16c	16C	16C	8gg	8b-	16c	16c	.	.	.	.
.	.	.	16c	16C	16C	.	.	16c	16c	.	.	.	.
32gg	32ee	32g	16c	16C	16C	32ee	16b-	16c	16c	.	.	.	.
32ee	32cc	32e	.	.	.	32cc	.	.	.	.	.	.	.
=53	=53	=53	=53	=53	=53	=53	=53	=53	=53	=53	=53	=53	=53
8ff	16ff	16f	8c	16F	16F	8ff	8a	8f	8f	2r	2r	2r	2r
.	16f	16c	.	16A	16A	.	.	.	.	.	.	.	.
4.r	16f	16c	4.r	16A	16A	4.r	4.r	4.r	4.r	.	.	.	.
.	16f	16c	.	16A	16A	.	.	.	.	.	.	.	.
.	16f	16c	.	16A	16A	.	.	.	.	.	.	.	.
.	8g	16c	.	16B-	16B-	.	.	.	.	.	.	.	.
.	.	16c	.	16B-	16B-	.	.	.	.	.	.	.	.
.	32e	16c	.	16B-	16B-	.	.	.	.	.	.	.	.
.	32c	.	.	.	.	.	.	.	.	.	.	.	.
=54	=54	=54	=54	=54	=54	=54	=54	=54	=54	=54	=54	=54	=54
2r	16f	16c	2r	16A	16A	2r	2r	2r	2r	2r	2r	2r	2r
.	8g	16c	.	16B-	16B-	.	.	.	.	.	.	.	.
.	.	16c	.	16B-	16B-	.	.	.	.	.	.	.	.
.	32e	16c	.	16B-	16B-	.	.	.	.	.	.	.	.
.	32c	.	.	.	.	.	.	.	.	.	.	.	.
.	16a	16c	.	16F	16F	.	.	.	.	.	.	.	.
.	8b-	8d	.	16BB-	16BB-	.	.	.	.	.	.	.	.
.	.	.	.	16C	16C	.	.	.	.	.	.	.	.
.	32g	32B-	.	16C	16C	.	.	.	.	.	.	.	.
.	32e	32G	.	.	.	.	.	.	.	.	.	.	.
=55	=55	=55	=55	=55	=55	=55	=55	=55	=55	=55	=55	=55	=55
2r	16f	16A	2r	4F	4F	2r	2r	6..r	6..r	2r	2r	2r	2r
.	16a	16f	.	.	.	.	.	.	.	.	.	.	.
.	16cc	16a	.	.	.	.	.	.	.	.	.	.	.
.	16a	16f	.	.	.	.	.	.	.	.	.	.	.
.	16aa	16ff	.	4r	4r	.	.	.	.	.	.	.	.
.	.	.	.	.	.	.	.	48r	48r	.	.	.	.
.	8.r	8.r	.	.	.	.	.	16G	16G	.	.	.	.
.	.	.	.	.	.	.	.	16F	16F	.	.	.	.
.	.	.	.	.	.	.	.	16E	16E	.	.	.	.
=56	=56	=56	=56	=56	=56	=56	=56	=56	=56	=56	=56	=56	=56
16r	2r	2r	2r	2r	2r	16r	4r	4D	4D	2r	2r	2r	2r
16ff#	.	.	.	.	.	16a	.	.	.	.	.	.	.
16aa	.	.	.	.	.	16cc	.	.	.	.	.	.	.
16ff#	.	.	.	.	.	16a	.	.	.	.	.	.	.
4ccc	.	.	.	.	.	4aa	16r	4F#	4F#	.	.	.	.
.	.	.	.	.	.	.	16d	.	.	.	.	.	.
.	.	.	.	.	.	.	16e-	.	.	.	.	.	.
.	.	.	.	.	.	.	16d	.	.	.	.	.	.
=57	=57	=57	=57	=57	=57	=57	=57	=57	=57	=57	=57	=57	=57
16bb-	2r	2r	2r	2r	2r	16gg	16g	8G	8G	2r	2r	2r	2r
16gg	.	.	.	.	.	16dd	16b-	.	.	.	.	.	.
16gg	.	.	.	.	.	16dd	16b-	4.r	4.r	.	.	.	.
16gg	.	.	.	.	.	16dd	16b-	.	.	.	.	.	.
16gg	.	.	.	.	.	16dd	16b-	.	.	.	.	.	.
8aa	.	.	.	.	.	16dd	8cc	.	.	.	.	.	.
.	.	.	.	.	.	16dd	.	.	.	.	.	.	.
32ff#	.	.	.	.	.	16dd	16a	.	.	.	.	.	.
32dd	.	.	.	.	.	.	.	.	.	.	.	.	.
=58	=58	=58	=58	=58	=58	=58	=58	=58	=58	=58	=58	=58	=58
16gg	2r	2r	2r	2r	2r	16dd	16b-	2r	2r	2r	2r	2r	2r
16bb-	.	.	.	.	.	16g	16dd	.	.	.	.	.	.
16bb-	.	.	.	.	.	16g	16dd	.	.	.	.	.	.
16bb-	.	.	.	.	.	16g	16dd	.	.	.	.	.	.
16bb-	.	.	.	.	.	16g	16dd	.	.	.	.	.	.
8ccc	.	.	.	.	.	8a	16dd	.	.	.	.	.	.
.	.	.	.	.	.	.	16dd	.	.	.	.	.	.
32aa	.	.	.	.	.	32f#	16dd	.	.	.	.	.	.
32ff#	.	.	.	.	.	32a	.	.	.	.	.	.	.
=59	=59	=59	=59	=59	=59	=59	=59	=59	=59	=59	=59	=59	=59
16bb-	2r	2r	2r	2r	2r	16g	8dd	16r	16r	2r	2r	2r	2r
16bb	.	.	.	.	.	16dd	.	16G	16G	.	.	.	.
16bb	.	.	.	.	.	16ff	4.r	16A-	16A-	.	.	.	.
16bb	.	.	.	.	.	16ee-	.	16G	16G	.	.	.	.
16bb	.	.	.	.	.	16dd	.	16f	16f	.	.	.	.
8ddd	.	.	.	.	.	16b	.	16f	16f	.	.	.	.
.	.	.	.	.	.	16g	.	16f	16f	.	.	.	.
32bb	.	.	.	.	.	16g	.	16f	16f	.	.	.	.
32gg	.	.	.	.	.	.	.	.	.	.	.	.	.
=60	=60	=60	=60	=60	=60	=60	=60	=60	=60	=60	=60	=60	=60
8ccc	16r	16r	16r	16r	16r	8g	2r	8e-	8e-	2r	2r	2r	2r
.	16cc	16g	16e-	16e-	16e-	.	.	.	.	.	.	.	.
4.r	16cc	16g	16e-	16e-	16e-	4.r	.	4.r	4.r	.	.	.	.
.	16cc	16g	16e-	16e-	16e-	.	.	.	.	.	.	.	.
.	16cc	16a-	16f	16f	16f	.	.	.	.	.	.	.	.
.	8dd-	16a-	16f	16f	16f	.	.	.	.	.	.	.	.
.	.	16a-	16f	16f	16f	.	.	.	.	.	.	.	.
.	32ff	16a-	16f	16f	16f	.	.	.	.	.	.	.	.
.	32b	.	.	.	.	.	.	.	.	.	.	.	.
=61	=61	=61	=61	=61	=61	=61	=61	=61	=61	=61	=61	=61	=61
2r	16cc	16g	16e-	16e-	16e-	2r	2r	2r	2r	2r	2r	2r	2r
.	16gg	16cc	16e-	16e-	16e-	.	.	.	.	.	.	.	.
.	16gg	16cc	16e-	16e-	16e-	.	.	.	.	.	.	.	.
.	16gg	16cc	16e-	16e-	16e-	.	.	.	.	.	.	.	.
.	8ff#	16cc	16d	16d	16d	.	.	.	.	.	.	.	.
.	.	8ee-	16d	16d	16d	.	.	.	.	.	.	.	.
.	[8aa	.	16F#	16F#	16F#	.	.	.	.	.	.	.	.
.	.	32cc	16F#	16F#	16F#	.	.	.	.	.	.	.	.
.	.	32a	.	.	.	.	.	.	.	.	.	.	.
=62	=62	=62	=62	=62	=62	=62	=62	=62	=62	=62	=62	=62	=62
2r	8aa]	16b-	16G	16G	16G	2r	2r	4.r	4.r	2r	2r	2r	2r
.	.	16b-	16e-	16E-	16E-	.	.	.	.	.	.	.	.
.	4gg	16b-	16e-	16E-	16E-	.	.	.	.	.	.	.	.
.	.	16b-	16e-	16E-	16E-	.	.	.	.	.	.	.	.
.	.	16b 16d	16d	16D	16D	.	.	.	.	.	.	.	.
.	.	16d 16b	16d	8F	8F	.	.	.	.	.	.	.	.
.	8ff	16b 16d	16g	.	.	.	.	8GG	8GG	.	.	.	.
.	.	16b 16d	16g	32D	32D	.	.	.	.	.	.	.	.
.	.	.	.	32BB	32BB	.	.	.	.	.	.	.	.
=63	=63	=63	=63	=63	=63	=63	=63	=63	=63	=63	=63	=63	=63
2r	16ee-	16e- 16cc	16g	16C	16C	2r	2r	8C	8C	2r	2r	2r	2r
.	16ee	16b-	16g	16c	16c	.	.	.	.	.	.	.	.
.	16ee	16b-	16g	16c	16c	.	.	8g	8g	.	.	.	.
.	16ee	16b-	16g	16c	16c	.	.	.	.	.	.	.	.
.	16ee	16a	16g	16c#	16c#	.	.	4e	4e	.	.	.	.
.	8gg	16a 16e	16e	16c#	16c#	.	.	.	.	.	.	.	.
.	.	16e 16a	16e	16c#	16c#	.	.	.	.	.	.	.	.
.	32ee	16e 16a	16e	16c#	16c#	.	.	.	.	.	.	.	.
.	32gg	.	.	.	.	.	.	.	.	.	.	.	.
=64	=64	=64	=64	=64	=64	=64	=64	=64	=64	=64	=64	=64	=64
2r	16ff	16a 16f	16f	16d	16d	2r	2r	[4f	[4f	2r	2r	2r	2r
.	16aa	16f	16f	16d	16d	.	.	.	.	.	.	.	.
.	16aa	16f	16f	16d	16d	.	.	.	.	.	.	.	.
.	16aa	16e	16f	16c	16c	.	.	.	.	.	.	.	.
.	16gg#	16d	16f	16B-	16B-	.	.	8f]	8f]	.	.	.	.
.	8ddd	8ff	16f	16B-	16B-	.	.	.	.	.	.	.	.
.	.	.	16d	16BB-	16BB-	.	.	8d	8d	.	.	.	.
.	16gg#	32ff	16d	16BB-	16BB-	.	.	.	.	.	.	.	.
.	.	32dd	.	.	.	.	.	.	.	.	.	.	.
=65	=65	=65	=65	=65	=65	=65	=65	=65	=65	=65	=65	=65	=65
2r	16aa	16cc#	16e	8AA	8AA	2r	2r	8e	8e	2r	2r	2r	2r
.	16a	16e	16c#	.	.	.	.	.	.	.	.	.	.
.	16a	16e	16c#	4.r	4.r	.	.	4c#	4c#	.	.	.	.
.	16a	16e	16c#	.	.	.	.	.	.	.	.	.	.
.	16a	16e	16c#	.	.	.	.	.	.	.	.	.	.
.	8b-	16e	16c#	.	.	.	.	.	.	.	.	.	.
.	.	16e	16c#	.	.	.	.	8c#	8c#	.	.	.	.
.	32g	16e	16c#	.	.	.	.	.	.	.	.	.	.
.	32e	.	.	.	.	.	.	.	.	.	.	.	.
=66	=66	=66	=66	=66	=66	=66	=66	=66	=66	=66	=66	=66	=66
16ddd	16d	16d	16d	16D	16D	16ff	16a	16f	16d	16gg	16cc	16dd	16D
32ddd	16ff 16dd	16ff 16dd	16f 16A	16d	16d	32ff	32a	32f	32d	32gg	32cc	32dd	32D
32ddd	.	.	.	.	.	32ff	32a	32f	32d	32gg	32cc	32dd	32D
16ddd	16r	16r	16f 16A	16D	16D	16ff	16a	16f	16d	16gg	16cc	16dd	16D
32ddd	16dd 16d 16aa	16ff 16a 16d	16f 16A	16d	16d	32ff	32a	32f	32d	32gg	32cc	32dd	32D
32ddd	.	.	.	.	.	32ff	32a	32f	32d	32gg	32cc	32dd	32D
16ddd	16r	16r	16f 16A	16D	16D	16ff	16a	16f	16d	16gg	16cc	16dd	16D
32ddd	16ddd 16dd 16d	16ff 16d 16a	16f 16A	16d	16d	32ff	32a	32f	32d	32gg	32cc	32dd	32D
32ddd	.	.	.	.	.	32ff	32a	32f	32d	32gg	32cc	32dd	32D
16ddd	16r	16r	16f 16A	16D	16D	16ff	16a	16f	16d	16gg	16cc	16dd	16D
32ddd	16dd	16f	16f 16A	16d	16d	32ff	32a	32f	32d	32gg	32cc	32dd	32D
32ddd	.	.	.	.	.	32ff	32a	32f	32d	32gg	32cc	32dd	32D
=67	=67	=67	=67	=67	=67	=67	=67	=67	=67	=67	=67	=67	=67
8ccc#	16cc#	16e	16e	16e	16e	8ee	8a	8e	8c#	8gg	8g	8g	8GG
.	16b-	16g	16d	16d	16d	.	.	.	.	.	.	.	.
4.r	16a	16g	16e	16c#	16c#	4.r	4.r	4.r	4.r	4.r	4.r	4.r	4.r
.	16b-	16g	16d	16d	16d	.	.	.	.	.	.	.	.
.	16a	16g	16e	16c#	16c#	.	.	.	.	.	.	.	.
.	16b-	16g	16d	16d	16d	.	.	.	.	.	.	.	.
.	16a	16g	16e	16c#	16c#	.	.	.	.	.	.	.	.
.	16g	16e	16c#	16A	16A	.	.	.	.	.	.	.	.
=68	=68	=68	=68	=68	=68	=68	=68	=68	=68	=68	=68	=68	=68
16ddd	16d	16d	16d	16D	16D	16ff	16a	16f	16d	16gg	16cc	16dd	16D
32ddd	16dd 16ff	16ff 16dd	16f 16A	16d	16d	32ff	32a	32f	32d	32gg	32cc	32dd	32D
32ddd	.	.	.	.	.	32ff	32a	32f	32d	32gg	32cc	32dd	32D
16ddd	16r	16r	16f 16A	16D	16D	16ff	16a	16f	16d	16gg	16cc	16dd	16D
32ddd	16aa 16d 16dd	16ff 16a 16d	16f 16A	16d	16d	32ff	32a	32f	32d	32gg	32cc	32dd	32D
32ddd	.	.	.	.	.	32ff	32a	32f	32d	32gg	32cc	32dd	32D
16ddd	16r	16r	16f 16A	16D	16D	16ff	16a	16f	16d	16gg	16cc	16dd	16D
32ddd	16ddd 16dd 16d	16ff 16a 16d	16f 16A	16d	16d	32ff	32a	32f	32d	32gg	32cc	32dd	32D
32ddd	.	.	.	.	.	32ff	32a	32f	32d	32gg	32cc	32dd	32D
16ddd	16r	16r	16f 16A	16D	16D	16ff	16a	16f	16d	16gg	16cc	16dd	16D
32ddd	16d	16d	16f 16A	16d	16d	32ff	32a	32f	32d	32gg	32cc	32dd	32D
32ddd	.	.	.	.	.	32ff	32a	32f	32d	32gg	32cc	32dd	32D
=69	=69	=69	=69	=69	=69	=69	=69	=69	=69	=69	=69	=69	=69
16aa	16c#	16c#	16e	16C#	16C#	16ee	16aa	16c#	16c#	16gg	16g	4ee	4GG
32aa	16aa	16e 16a	16e	16c#	16c#	32ee	32aa	32c#	32c#	32gg	32g	.	.
32aa	.	.	.	.	.	32ee	32aa	32c#	32c#	32gg	32g	.	.
16aa	16r	16r	16a 16e	16C	16C	16ee	16aa	16c	16c	16gg	16g	.	.
32aa	16a 16aa	16a 16e	16a 16e	16c	16c	32ee	32aa	32c	32c	32gg	32g	.	.
32aa	.	.	.	.	.	32ee	32aa	32c	32c	32gg	32g	.	.
16ff	16r	16r	16a 16d	16BB	16BB	16dd	16aa	16B	16B	16cc	16c	4r	4r
32ff	16a 16aa	16a 16d	16a 16d	16B	16B	32dd	32aa	32B	32B	32cc	32c	.	.
32ff	.	.	.	.	.	32dd	32aa	32B	32B	32cc	32c	.	.
16gg	16r	16r	16d	16BB-	16BB-	16dd	16gg	16B-	16B-	16cc	16c	.	.
32gg	16gg	16dd	16d	16B-	16B-	32dd	32gg	32B-	32B-	32cc	32c	.	.
32gg	.	.	.	.	.	32dd	32gg	32B-	32B-	32cc	32c	.	.
=70	=70	=70	=70	=70	=70	=70	=70	=70	=70	=70	=70	=70	=70
8aa	16A	16cc#	16e	16AA	16AA	16cc#	16aa	[6..A	[6..A	[2gg	[2g	2r	2r
.	8gg	8ee	16c#	16AA	16AA	8gg	8ee	.	.	.	.	.	.
4.r	.	.	16c#	16AA	16AA	.	.	.	.	.	.	.	.
.	16ff	16dd	16d	16AA	16AA	16ff	16dd	.	.	.	.	.	.
.	16ee	16cc#	16e	16AA	16AA	16ee	16cc#	.	.	.	.	.	.
.	.	.	.	.	.	.	.	48A]	48A]	.	.	.	.
.	8bb-	8gg	16c#	16AA	16AA	8bb-	8gg	8e	8e	.	.	.	.
.	.	.	16c#	16AA	16AA	.	.	.	.	.	.	.	.
.	16aa	16ff	16d	16AA	16AA	16aa	16ff	16f	16f	.	.	.	.
=71	=71	=71	=71	=71	=71	=71	=71	=71	=71	=71	=71	=71	=71
2r	16gg	16ee	8e	4AA	4AA	8gg	8ee	8g	8g	8gg]	8g]	2r	2r
.	16ff	16dd	.	.	.	.	.	.	.	.	.	.	.
.	16ee	16cc#	4.r	.	.	4.r	4.r	4.r	4.r	4.r	4.r	.	.
.	16dd	16b-	.	.	.	.	.	.	.	.	.	.	.
.	16cc#	16a	.	4r	4r	.	.	.	.	.	.	.	.
.	16b-	16d	.	.	.	.	.	.	.	.	.	.	.
.	16a	16c#	.	.	.	.	.	.	.	.	.	.	.
.	16g	16e	.	.	.	.	.	.	.	.	.	.	.
=72	=72	=72	=72	=72	=72	=72	=72	=72	=72	=72	=72	=72	=72
2r	8.f#	8.f#	4A	4A	4D	8.ff#	2r	2r	2r	2r	2r	2r	2r
.	32e	32e	.	.	.	32ee	.	.	.	.	.	.	.
.	32f#	32f#	.	.	.	32ff#	.	.	.	.	.	.	.
.	8g	8g	8B	8B	8GG	8gg	.	.	.	.	.	.	.
.	16.e	16.e	8G	8G	8AA	16.ee	.	.	.	.	.	.	.
.	32c#	32c#	.	.	.	32cc#	.	.	.	.	.	.	.
=73	=73	=73	=73	=73	=73	=73	=73	=73	=73	=73	=73	=73	=73
2r	8d	8d	4F#	4F#	4D	8dd	2r	2r	2r	4r	4r	2r	2r
.	8f#	8f#	.	.	.	8ff#	.	.	.	.	.	.	.
.	16a	16a	4r	4r	4r	16aa	.	.	.	16r	16r	.	.
.	8.r	8.r	.	.	.	8.r	.	.	.	16cc	16c	.	.
.	.	.	.	.	.	.	.	.	.	16ee	16e	.	.
.	.	.	.	.	.	.	.	.	.	16gg	16g	.	.
=74	=74	=74	=74	=74	=74	=74	=74	=74	=74	=74	=74	=74	=74
2r	8.a	8d	4F#	4F#	[2D	8.aa	2r	2r	2r	4ccc	4cc	2r	2r
.	.	8c	.	.	.	.	.	.	.	.	.	.	.
.	32g	.	.	.	.	32gg	.	.	.	.	.	.	.
.	32a	.	.	.	.	32aa	.	.	.	.	.	.	.
.	16b	8.B	8G	8.G	.	16bb	.	.	.	4r	4r	.	.
.	16cc#	.	.	.	.	16ccc#	.	.	.	.	.	.	.
.	16dd	.	16G	.	.	16ddd	.	.	.	.	.	.	.
.	16b	16c#	16A	16A	.	16bb	.	.	.	.	.	.	.
=75	=75	=75	=75	=75	=75	=75	=75	=75	=75	=75	=75	=75	=75
2r	8a	8d	8B	8B	4D_	8aa	2r	2r	2r	4r	4r	2r	2r
.	16g	8e	8c#	8c#	.	16gg	.	.	.	.	.	.	.
.	32f#	.	.	.	.	32ff#	.	.	.	.	.	.	.
.	32g	.	.	.	.	32gg	.	.	.	.	.	.	.
.	8f#	8A	8d	8d	8D]	8ff#	.	.	.	16r	16r	.	.
.	.	.	.	.	.	.	.	.	.	16gg	16g	.	.
.	8r	8r	8r	8r	8r	8r	.	.	.	16ee	16e	.	.
.	.	.	.	.	.	.	.	.	.	16cc	16c	.	.
=76	=76	=76	=76	=76	=76	=76	=76	=76	=76	=76	=76	=76	=76
2r	8.e	8c#	4G	4G	4G	[2aa	2r	4e	4c#	[2g	[2G	2r	2r
.	.	8A	.	.	.	.	.	.	.	.	.	.	.
.	32f#	.	.	.	.	.	.	.	.	.	.	.	.
.	32g	.	.	.	.	.	.	.	.	.	.	.	.
.	16b	8d	4F#	4F#	4F#	.	.	8f#	8d	.	.	.	.
.	16a	.	.	.	.	.	.	.	.	.	.	.	.
.	16g	8A	.	.	.	.	.	8r	8r	.	.	.	.
.	16f#	.	.	.	.	.	.	.	.	.	.	.	.
=77	=77	=77	=77	=77	=77	=77	=77	=77	=77	=77	=77	=77	=77
2r	16e	8c#	4G	4G	4G	6..aa_	2r	4e	4c#	4g]	4G]	2r	2r
.	32f#	.	.	.	.	.	.	.	.	.	.	.	.
.	32g	.	.	.	.	.	.	.	.	.	.	.	.
.	32a	8A	.	.	.	.	.	.	.	.	.	.	.
.	32b	.	.	.	.	.	.	.	.	.	.	.	.
.	32cc#	.	.	.	.	.	.	.	.	.	.	.	.
.	32dd	.	.	.	.	.	.	.	.	.	.	.	.
.	32ee	8d	4F#	4F#	4F#	.	.	8f#	8d	4r	4r	.	.
.	32dd	.	.	.	.	.	.	.	.	.	.	.	.
.	.	.	.	.	.	48aa]	.	.	.	.	.	.	.
.	32ff#	.	.	.	.	32bb	.	.	.	.	.	.	.
.	32ee	.	.	.	.	32ccc#	.	.	.	.	.	.	.
.	32dd	8A	.	.	.	32ddd	.	8r	8r	.	.	.	.
.	32cc#	.	.	.	.	32ccc#	.	.	.	.	.	.	.
.	32b	.	.	.	.	32bb	.	.	.	.	.	.	.
.	32a	.	.	.	.	32aa]	.	.	.	.	.	.	.
=78	=78	=78	=78	=78	=78	=78	=78	=78	=78	=78	=78	=78	=78
2r	16g#	16B	16E	16E	16E	16gg#	2r	2r	2r	2r	2r	2r	2r
.	16r	16r	16r	16r	16r	16r	.	.	.	.	.	.	.
.	16g	16c#	16A	16AA	16AA	16gg	.	.	.	.	.	.	.
.	16r	16r	16r	16r	16r	16r	.	.	.	.	.	.	.
.	16f#	16d	16D	16D	16D	16ff#	.	.	.	.	.	.	.
.	16r	16r	16r	16r	16r	16r	.	.	.	.	.	.	.
.	24e	24B	16G	16GG	16GG	24ee	.	.	.	.	.	.	.
.	24g	24g	.	.	.	24gg	.	.	.	.	.	.	.
.	.	.	16r	16r	16r	.	.	.	.	.	.	.	.
.	24b	24e	.	.	.	24bb	.	.	.	.	.	.	.
=79	=79	=79	=79	=79	=79	=79	=79	=79	=79	=79	=79	=79	=79
2r	4d	4d	4F#	8AA	8AA	8.dd	2r	2r	2r	2r	2r	2r	2r
.	.	.	.	8A	8A	.	.	.	.	.	.	.	.
.	.	.	.	.	.	32ee	.	.	.	.	.	.	.
.	.	.	.	.	.	32dd	.	.	.	.	.	.	.
.	16c#	8c#	8E	8AA	8AA	8cc#	.	.	.	.	.	.	.
.	16A	.	.	.	.	.	.	.	.	.	.	.	.
.	16c#	8r	8r	8r	8r	8r	.	.	.	.	.	.	.
.	16e	.	.	.	.	.	.	.	.	.	.	.	.
=80	=80	=80	=80	=80	=80	=80	=80	=80	=80	=80	=80	=80	=80
8aa	8a	8c#	8e	8AA	8AA	2r	2r	8c#	8A	2r	2r	2r	2r
8gg#	8g#	8d	8d	8BB	8BB	.	.	8d	8B	.	.	.	.
8gg	8g	8e	8A	8C#	8C#	.	.	8e	8c#	.	.	.	.
8r	8r	8r	8r	8r	8r	.	.	8r	8r	.	.	.	.
=81	=81	=81	=81	=81	=81	=81	=81	=81	=81	=81	=81	=81	=81
16ff#	16f#	16d	4d	4D	4D	2r	2r	16f#	16d	2r	2r	2r	2r
16fff#	16ff#	16dd	.	.	.	.	.	16f#	16d	.	.	.	.
16eee	16ee	16cc#	.	.	.	.	.	16e	16c#	.	.	.	.
16ddd	16dd	16b	.	.	.	.	.	16d	16B	.	.	.	.
8ccc#	8cc#	8a	8e	8E	8E	.	.	8c#	8A	.	.	.	.
16bb	16b	16g#	8r	8r	8r	.	.	16B	16G#	.	.	.	.
16r	16r	16r	.	.	.	.	.	16r	16r	.	.	.	.
=82	=82	=82	=82	=82	=82	=82	=82	=82	=82	=82	=82	=82	=82
8eee	8ee	8b	8g#	8G#	8G#	2r	2r	2r	2r	2r	2r	2r	2r
16ddd#	16dd#	16cc	16a	16A	16A	.	.	.	.	.	.	.	.
16r	16r	16r	16r	16r	16r	.	.	.	.	.	.	.	.
8ddd	8dd	8g#	8b	8B	8B	.	.	.	.	.	.	.	.
16ccc#	16cc#	16a	16a	16A	16A	.	.	.	.	.	.	.	.
16r	16r	16r	16r	16r	16r	.	.	.	.	.	.	.	.
=83	=83	=83	=83	=83	=83	=83	=83	=83	=83	=83	=83	=83	=83
8bb	8b	8f#	8f#	8D	8D	2r	2r	2r	2r	2r	2r	2r	2r
24ddd	24dd	8d	8B	8E	8E	.	.	.	.	.	.	.	.
24bb	24b	.	.	.	.	.	.	.	.	.	.	.	.
24gg#	24g#	.	.	.	.	.	.	.	.	.	.	.	.
[4aa	[4a	8c#	8c#	8AA	[4AA	.	.	.	.	.	.	.	.
.	.	24a	8F#	8D	.	.	.	.	.	.	.	.	.
.	.	24f#	.	.	.	.	.	.	.	.	.	.	.
.	.	24d#	.	.	.	.	.	.	.	.	.	.	.
=84	=84	=84	=84	=84	=84	=84	=84	=84	=84	=84	=84	=84	=84
8aa]	8a]	8c	8D#	8D#	2AA_	2r	2r	24F#	24F#	2r	2r	2r	2r
.	.	.	.	.	.	.	.	24A	24A	.	.	.	.
.	.	.	.	.	.	.	.	24c	24c	.	.	.	.
8gg#	8g#	8B	8E	8E	.	.	.	8B	8B	.	.	.	.
8gg	8g	8B-	8C#	8C#	.	.	.	24E	24E	.	.	.	.
.	.	.	.	.	.	.	.	24G	24G	.	.	.	.
.	.	.	.	.	.	.	.	24B-	24B-	.	.	.	.
8ff#	8f#	8A	8D	8D	.	.	.	8A	8A	.	.	.	.
=85	=85	=85	=85	=85	=85	=85	=85	=85	=85	=85	=85	=85	=85
8.ff	8.f	4G#	4D	4BB	4.AA]	2r	2r	8GG#	8GG#	2r	2r	2r	2r
.	.	.	.	.	.	.	.	8d	8d	.	.	.	.
32ee	32e	.	.	.	.	.	.	.	.	.	.	.	.
32dd	32d	.	.	.	.	.	.	.	.	.	.	.	.
32cc#	32c#	8A	8E	8AA	.	.	.	8e	8e	.	.	.	.
32a	32A	.	.	.	.	.	.	.	.	.	.	.	.
32g#	32G#	.	.	.	.	.	.	.	.	.	.	.	.
32a	32A	.	.	.	.	.	.	.	.	.	.	.	.
32b	32B	8r	8r	8r	8r	.	.	8r	8r	.	.	.	.
32cc#	32c#	.	.	.	.	.	.	.	.	.	.	.	.
32dd	32d	.	.	.	.	.	.	.	.	.	.	.	.
32ee	32e	.	.	.	.	.	.	.	.	.	.	.	.
=86	=86	=86	=86	=86	=86	=86	=86	=86	=86	=86	=86	=86	=86
8.ff#	8.f#	8.f#	4A	4A	4D	2r	2r	2r	2r	2r	2r	2r	2r
32ee	32e	32e	.	.	.	.	.	.	.	.	.	.	.
32ff#	32f#	32f#	.	.	.	.	.	.	.	.	.	.	.
8gg	8g	8g	8B	8B	8GG	.	.	.	.	.	.	.	.
16.ee	16.e	16.e	8G	8G	8AA	.	.	.	.	.	.	.	.
32cc#	32c#	32c#	.	.	.	.	.	.	.	.	.	.	.
=87	=87	=87	=87	=87	=87	=87	=87	=87	=87	=87	=87	=87	=87
8dd	8d	8d	4F#	4F#	4D	8.dd	[2a	8.f#	2r	4cc	4e	2r	2r
4.r	4.r	4.r	.	.	.	.	.	.	.	.	.	.	.
.	.	.	.	.	.	32cc#	.	32e	.	.	.	.	.
.	.	.	.	.	.	32dd	.	32f#	.	.	.	.	.
.	.	.	4r	4r	4r	8ee	.	8g	.	4dd	4g	.	.
.	.	.	.	.	.	16.cc#	.	16.e	.	.	.	.	.
.	.	.	.	.	.	32a	.	32c#	.	.	.	.	.
=88	=88	=88	=88	=88	=88	=88	=88	=88	=88	=88	=88	=88	=88
2r	4.aa	8.a	8.f#	8.F#	8.F#	8dd	8a]	8d	2r	8ee	8cc	2r	2r
.	.	.	.	.	.	4.r	4.r	4.r	.	4.r	4.r	.	.
.	.	32g	32e	32E	32E	.	.	.	.	.	.	.	.
.	.	32a	32f#	32F#	32F#	.	.	.	.	.	.	.	.
.	.	4b	8g	8G	8G	.	.	.	.	.	.	.	.
.	[8gg	.	16.e	16.E	16.E	.	.	.	.	.	.	.	.
.	.	.	32c#	32C#	32C#	.	.	.	.	.	.	.	.
=89	=89	=89	=89	=89	=89	=89	=89	=89	=89	=89	=89	=89	=89
2r	8gg]	4a	8d	8D	8D	2r	2r	2r	2r	2r	2r	2r	2r
.	8.ff#	.	8f#	8F#	8F#	.	.	.	.	.	.	.	.
.	.	[12..g	16a	16A	16A	.	.	.	.	.	.	.	.
.	16b	.	8.r	8.r	8.r	.	.	.	.	.	.	.	.
.	[8ee	.	.	.	.	.	.	.	.	.	.	.	.
.	.	96g]	.	.	.	.	.	.	.	.	.	.	.
.	.	32a	.	.	.	.	.	.	.	.	.	.	.
.	.	32g	.	.	.	.	.	.	.	.	.	.	.
.	.	32a	.	.	.	.	.	.	.	.	.	.	.
=90	=90	=90	=90	=90	=90	=90	=90	=90	=90	=90	=90	=90	=90
2r	16ee]	4f#	8.b	8.B	8.B	2r	2r	2r	2r	2r	2r	2r	2r
.	16aa	.	.	.	.	.	.	.	.	.	.	.	.
.	8.dd	.	.	.	.	.	.	.	.	.	.	.	.
.	.	.	32dd	32d	32d	.	.	.	.	.	.	.	.
.	.	.	32b	32B	32B	.	.	.	.	.	.	.	.
.	.	4e	8g#	8G#	8G#	.	.	.	.	.	.	.	.
.	16b	.	.	.	.	.	.	.	.	.	.	.	.
.	16cc#	.	8a	8A	8A	.	.	.	.	.	.	.	.
.	16cc#	.	.	.	.	.	.	.	.	.	.	.	.
=91	=91	=91	=91	=91	=91	=91	=91	=91	=91	=91	=91	=91	=91
2r	8b	8f#	8d	8D	8D	4r	2r	2r	2r	2r	2r	2r	2r
.	24dd	8d	8e	8E	8E	.	.	.	.	.	.	.	.
.	24b	.	.	.	.	.	.	.	.	.	.	.	.
.	24g#	.	.	.	.	.	.	.	.	.	.	.	.
.	[4a	4c#	4A	4AA	[4AA	8.aa	.	.	.	.	.	.	.
.	.	.	.	.	.	16aa#	.	.	.	.	.	.	.
=92	=92	=92	=92	=92	=92	=92	=92	=92	=92	=92	=92	=92	=92
2r	8.a]	8d#	4F#	4F#	2AA_	4..bb	2r	4d#	4B	2r	2r	2r	2r
.	.	8B	.	.	.	.	.	.	.	.	.	.	.
.	32g#	.	.	.	.	.	.	.	.	.	.	.	.
.	32a	.	.	.	.	.	.	.	.	.	.	.	.
.	16cc	8e	4G	4G	.	.	.	8e	8E	.	.	.	.
.	16b	.	.	.	.	.	.	.	.	.	.	.	.
.	16a	8B	.	.	.	.	.	8r	8r	.	.	.	.
.	16g	.	.	.	.	16bb-	.	.	.	.	.	.	.
=93	=93	=93	=93	=93	=93	=93	=93	=93	=93	=93	=93	=93	=93
4r	32r	4c#	8E	8E	4AA_	4aa	2r	4c#	4A	2r	2r	2r	2r
.	32aa	.	.	.	.	.	.	.	.	.	.	.	.
.	32gg	.	.	.	.	.	.	.	.	.	.	.	.
.	32ff#	.	.	.	.	.	.	.	.	.	.	.	.
.	32ee	.	8G	8G	.	.	.	.	.	.	.	.	.
.	32dd	.	.	.	.	.	.	.	.	.	.	.	.
.	32cc#	.	.	.	.	.	.	.	.	.	.	.	.
.	32b	.	.	.	.	.	.	.	.	.	.	.	.
32aa	32a	4d	4F#	4F#	8AA]	8ff#	.	8d	8D	.	.	.	.
32gg	32g	.	.	.	.	.	.	.	.	.	.	.	.
32ff#	32f#	.	.	.	.	.	.	.	.	.	.	.	.
32gg	32g	.	.	.	.	.	.	.	.	.	.	.	.
32aa	32a	.	.	.	8FF#	8r	.	8r	8r	.	.	.	.
32bb	32b	.	.	.	.	.	.	.	.	.	.	.	.
32ccc#	32cc#	.	.	.	.	.	.	.	.	.	.	.	.
32ddd	32dd	.	.	.	.	.	.	.	.	.	.	.	.
=94	=94	=94	=94	=94	=94	=94	=94	=94	=94	=94	=94	=94	=94
32ddd	32dd	8B	8G	8G	8GG	2r	2r	2r	2r	2r	2r	2r	2r
32aa#	32a#	.	.	.	.	.	.	.	.	.	.	.	.
32bb	32b	.	.	.	.	.	.	.	.	.	.	.	.
32ff#	32f#	.	.	.	.	.	.	.	.	.	.	.	.
32gg	32g	4.r	4.r	4.r	4.r	.	.	.	.	.	.	.	.
32dd#	32d#	.	.	.	.	.	.	.	.	.	.	.	.
32ee	32e	.	.	.	.	.	.	.	.	.	.	.	.
32bb	32b	.	.	.	.	.	.	.	.	.	.	.	.
4r	4r	.	.	.	.	.	.	.	.	.	.	.	.
=95	=95	=95	=95	=95	=95	=95	=95	=95	=95	=95	=95	=95	=95
32ddd	32dd	4r	4r	4r	4r	2r	2r	2r	2r	2r	2r	2r	2r
32ccc#	32cc#	.	.	.	.	.	.	.	.	.	.	.	.
32ddd	32dd	.	.	.	.	.	.	.	.	.	.	.	.
32aa#	32a#	.	.	.	.	.	.	.	.	.	.	.	.
32bb	32b	.	.	.	.	.	.	.	.	.	.	.	.
32ff#	32f#	.	.	.	.	.	.	.	.	.	.	.	.
32gg	32g	.	.	.	.	.	.	.	.	.	.	.	.
32dd#	32d#	.	.	.	.	.	.	.	.	.	.	.	.
16ee	16e	8B 8d	8B	8G#	8G#	.	.	.	.	.	.	.	.
16bb	16b	.	.	.	.	.	.	.	.	.	.	.	.
8r	8r	8r	8r	8r	8r	.	.	.	.	.	.	.	.
=96	=96	=96	=96	=96	=96	=96	=96	=96	=96	=96	=96	=96	=96
32ddd	32dd	4r	4r	4r	4r	2r	2r	4r	4r	2r	2r	2r	2r
32ccc#	32cc#	.	.	.	.	.	.	.	.	.	.	.	.
32ddd	32dd	.	.	.	.	.	.	.	.	.	.	.	.
32aa#	32a#	.	.	.	.	.	.	.	.	.	.	.	.
32bb	32b	.	.	.	.	.	.	.	.	.	.	.	.
32ff#	32f#	.	.	.	.	.	.	.	.	.	.	.	.
32gg	32g	.	.	.	.	.	.	.	.	.	.	.	.
32dd#	32d#	.	.	.	.	.	.	.	.	.	.	.	.
16ee	16e	8c#	8B-	8G	8G	.	.	8B-	8G	.	.	.	.
16eee	16ee	.	.	.	.	.	.	.	.	.	.	.	.
8r	8r	8r	8r	8r	8r	.	.	8r	8r	.	.	.	.
=97	=97	=97	=97	=97	=97	=97	=97	=97	=97	=97	=97	=97	=97
16ff	16f	8B 8d	8B	8G#	8G#	2r	2r	8B	8G#	2r	2r	2r	2r
16r	16r	.	.	.	.	.	.	.	.	.	.	.	.
16fff	16ff	4.r	4.r	4.r	4.r	.	.	4.r	4.r	.	.	.	.
6..r	6..r	.	.	.	.	.	.	.	.	.	.	.	.
48r	48r	.	.	.	.	.	.	.	.	.	.	.	.
=98	=98	=98	=98	=98	=98	=98	=98	=98	=98	=98	=98	=98	=98
8.ff#	8.f#	4d	8.d	2AA	2AA	2r	2r	2r	2r	2r	2r	2r	2r
32ee	32e	.	32c#	.	.	.	.	.	.	.	.	.	.
32ff#	32f#	.	32d	.	.	.	.	.	.	.	.	.	.
8gg	8g	4c#	8e	.	.	.	.	.	.	.	.	.	.
16.ee	16.e	.	8G	.	.	.	.	.	.	.	.	.	.
32cc#	32c#	.	.	.	.	.	.	.	.	.	.	.	.
=99	=99	=99	=99	=99	=99	=99	=99	=99	=99	=99	=99	=99	=99
8dd	8d	8d	8F#	8D	8D	16r	16r	2r	2r	2r	2r	2r	2r
.	.	.	.	.	.	16dd	16f#	.	.	.	.	.	.
4.r	4.r	4.r	4.r	4.r	4.r	16dd	16f#	.	.	.	.	.	.
.	.	.	.	.	.	16dd	16f#	.	.	.	.	.	.
.	.	.	.	.	.	16dd	16f#	.	.	.	.	.	.
.	.	.	.	.	.	8ee	8g	.	.	.	.	.	.
.	.	.	.	.	.	32cc#	32e	.	.	.	.	.	.
.	.	.	.	.	.	32a	32g	.	.	.	.	.	.
=100	=100	=100	=100	=100	=100	=100	=100	=100	=100	=100	=100	=100	=100
2r	2r	2r	2r	2r	2r	16dd	16f#	16r	16r	2r	2r	2r	2r
.	.	.	.	.	.	16ff#	16a	16d	16d	.	.	.	.
.	.	.	.	.	.	16ff#	16a	16d	16d	.	.	.	.
.	.	.	.	.	.	16ff#	16a	16d	16d	.	.	.	.
.	.	.	.	.	.	16ff#	[4a	16d	16d	.	.	.	.
.	.	.	.	.	.	8gg	.	8e	8e	.	.	.	.
.	.	.	.	.	.	32ee	.	32c#	32c#	.	.	.	.
.	.	.	.	.	.	32cc#	.	32A	32A	.	.	.	.
=101	=101	=101	=101	=101	=101	=101	=101	=101	=101	=101	=101	=101	=101
16r	2r	2r	2r	2r	2r	16ff#	16a]	8d	8d	2r	2r	2r	2r
16aa	.	.	.	.	.	16ff#	16dd	.	.	.	.	.	.
16aa	.	.	.	.	.	16ff#	16dd	4.r	4.r	.	.	.	.
16aa	.	.	.	.	.	16ff#	16dd	.	.	.	.	.	.
16aa#	.	.	.	.	.	8ff#	8g	.	.	.	.	.	.
8bb	.	.	.	.	.	.	.	.	.	.	.	.	.
.	.	.	.	.	.	[8ee	8cc#	.	.	.	.	.	.
32gg	.	.	.	.	.	.	.	.	.	.	.	.	.
32ee	.	.	.	.	.	.	.	.	.	.	.	.	.
=102	=102	=102	=102	=102	=102	=102	=102	=102	=102	=102	=102	=102	=102
16gg#	2r	2r	2r	2r	2r	8ee]	8f#	2r	2r	2r	2r	2r	2r
8aa	.	.	.	.	.	.	.	.	.	.	.	.	.
.	.	.	.	.	.	4dd	8b	.	.	.	.	.	.
32ff#	.	.	.	.	.	.	.	.	.	.	.	.	.
32dd	.	.	.	.	.	.	.	.	.	.	.	.	.
16ff#	.	.	.	.	.	.	8e	.	.	.	.	.	.
8gg	.	.	.	.	.	.	.	.	.	.	.	.	.
.	.	.	.	.	.	8cc#	8a	.	.	.	.	.	.
32ee	.	.	.	.	.	.	.	.	.	.	.	.	.
32cc#	.	.	.	.	.	.	.	.	.	.	.	.	.
=103	=103	=103	=103	=103	=103	=103	=103	=103	=103	=103	=103	=103	=103
16ff#	2r	2r	2r	2r	2r	16a	16d	2r	2r	2r	2r	2r	2r
16ee	.	.	.	.	.	16b	16g	.	.	.	.	.	.
16gg	.	.	.	.	.	16cc#	16e	.	.	.	.	.	.
16ff#	.	.	.	.	.	16dd	16d	.	.	.	.	.	.
16bb	.	.	.	.	.	8dd	16g	.	.	.	.	.	.
16aa	.	.	.	.	.	.	16f#	.	.	.	.	.	.
16ddd	.	.	.	.	.	8aa	16ff#	.	.	.	.	.	.
16ccc#	.	.	.	.	.	.	16ee	.	.	.	.	.	.
=104	=104	=104	=104	=104	=104	=104	=104	=104	=104	=104	=104	=104	=104
16eee	2r	2r	2r	2r	2r	8.aa	16gg	2r	2r	2r	2r	2r	2r
16ddd	.	.	.	.	.	.	16ff#	.	.	.	.	.	.
16ccc#	.	.	.	.	.	.	16ee	.	.	.	.	.	.
16bb	.	.	.	.	.	16gg	16dd	.	.	.	.	.	.
16aa	.	.	.	.	.	16ff#	16cc#	.	.	.	.	.	.
16gg	.	.	.	.	.	16ee	16b	.	.	.	.	.	.
16ff#	.	.	.	.	.	16dd	16a	.	.	.	.	.	.
16ee	.	.	.	.	.	16cc#	16g	.	.	.	.	.	.
=105	=105	=105	=105	=105	=105	=105	=105	=105	=105	=105	=105	=105	=105
16ff#	2r	2r	2r	2r	2r	16dd	16f#	2r	2r	2r	2r	2r	2r
16gg	.	.	.	.	.	16ee	16e	.	.	.	.	.	.
16aa	.	.	.	.	.	16ff#	16d	.	.	.	.	.	.
16ff#	.	.	.	.	.	16dd	16b	.	.	.	.	.	.
16gg	.	.	.	.	.	16ee	16g	.	.	.	.	.	.
16r	.	.	.	.	.	16r	16r	.	.	.	.	.	.
16ee	.	.	.	.	.	16cc#	16a	.	.	.	.	.	.
16r	.	.	.	.	.	16r	16r	.	.	.	.	.	.
=106	=106	=106	=106	=106	=106	=106	=106	=106	=106	=106	=106	=106	=106
16aa	2r	2r	2r	2r	2r	16ff#	16f#	2r	2r	2r	2r	2r	2r
16aa	.	.	.	.	.	16ff#	16r	.	.	.	.	.	.
16r	.	.	.	.	.	16r	16b	.	.	.	.	.	.
16ff#	.	.	.	.	.	16dd	16r	.	.	.	.	.	.
16gg	.	.	.	.	.	16ee	16g	.	.	.	.	.	.
16gg	.	.	.	.	.	16ee	16r	.	.	.	.	.	.
16r	.	.	.	.	.	16r	16a	.	.	.	.	.	.
16ee	.	.	.	.	.	16cc#	16r	.	.	.	.	.	.
=107	=107	=107	=107	=107	=107	=107	=107	=107	=107	=107	=107	=107	=107
8dd	16r	8d	8F#	8F#	[2D	8dd	8d	2r	2r	[2cc	[2c	2r	2r
.	16f#	.	.	.	.	.	.	.	.	.	.	.	.
4.r	16f#	8c	8A	8A	.	4.r	4.r	.	.	.	.	.	.
.	16f#	.	.	.	.	.	.	.	.	.	.	.	.
.	16f#	8B	4G	4G	.	.	.	.	.	.	.	.	.
.	8g	.	.	.	.	.	.	.	.	.	.	.	.
.	.	8c#	.	.	.	.	.	.	.	.	.	.	.
.	32e	.	.	.	.	.	.	.	.	.	.	.	.
.	32c#	.	.	.	.	.	.	.	.	.	.	.	.
=108	=108	=108	=108	=108	=108	=108	=108	=108	=108	=108	=108	=108	=108
2r	16d	8d	8F#	8F#	2D_	16r	2r	16r	16r	2cc_	2c_	2r	2r
.	16f#	.	.	.	.	16ee-	.	16e-	16e-	.	.	.	.
.	16f#	8c	8A	8A	.	16dd	.	16d	16d	.	.	.	.
.	16f#	.	.	.	.	16aa	.	16A	16A	.	.	.	.
.	16f#	8B-	4G	4G	.	8bb-	.	8B-	8B-	.	.	.	.
.	8g	.	.	.	.	.	.	.	.	.	.	.	.
.	.	8c#	.	.	.	16g	.	8G	8G	.	.	.	.
.	32b-	.	.	.	.	16cc#	.	.	.	.	.	.	.
.	32c#	.	.	.	.	.	.	.	.	.	.	.	.
=109	=109	=109	=109	=109	=109	=109	=109	=109	=109	=109	=109	=109	=109
16r	16d	16d	8F#	8d	2D_	8dd	2r	8F#	8F#	8cc]	8c]	2r	2r
16bb-	16b-	16f#	.	.	.	.	.	.	.	.	.	.	.
16aa	16a	16f#	8A	8c	.	4.r	.	4.r	4.r	4.r	4.r	.	.
16eee-	16ee-	16f#	.	.	.	.	.	.	.	.	.	.	.
8ddd	8dd	16f#	8B-	4B-	.	.	.	.	.	.	.	.	.
.	.	8g	.	.	.	.	.	.	.	.	.	.	.
8ccc#	8cc#	.	8G	.	.	.	.	.	.	.	.	.	.
.	.	32b-	.	.	.	.	.	.	.	.	.	.	.
.	.	32g	.	.	.	.	.	.	.	.	.	.	.
=110	=110	=110	=110	=110	=110	=110	=110	=110	=110	=110	=110	=110	=110
8ddd	8dd	16f#	8A	8A	8D]	8.r	8.r	4r	4r	2c	2C	2r	2r
.	.	8r	.	.	.	.	.	.	.	.	.	.	.
16r	16r	.	16r	16r	8r	.	.	.	.	.	.	.	.
16cc#	16c#	16B-	16G	16G	.	16b-	16g	.	.	.	.	.	.
16dd	16d	16A	16F#	16F#	8D	16a	16f#	8D	8D	.	.	.	.
16cc#	16c#	16B-	16G	16G	.	16b-	16g	.	.	.	.	.	.
16dd	16d	16A	16F#	16F#	8D	16a	16f#	8D	8D	.	.	.	.
16cc#	16c#	16B-	16G	16G	.	16b-	16g	.	.	.	.	.	.
=111	=111	=111	=111	=111	=111	=111	=111	=111	=111	=111	=111	=111	=111
8dd	8d	8A	8F#	8F#	8D	8a	8f#	8D	8D	8c	8C	2r	2r
8dd	8d	8A	8F#	8F#	8D	8a	8f#	8D	8D	8c	8C	.	.
8dd	8d	8A	8F#	8F#	8D	8a	8f#	8D	8D	8c	8C	.	.
8r	8r	8r	8r	8r	8r	8r	8r	8r	8r	8r	8r	.	.
==	==	==	==	==	==	==	==	==	==	==	==	==	==
*-	*-	*-	*-	*-	*-	*-	*-	*-	*-	*-	*-	*-	*-
!!!RWG1: This file contains only pitch and duration data.
!!!RWG2: Transposing instruments are not transposed.
!!!RWG3: Spines may have incompatible meters.
!!!RWG4: Durations of rests and tied notes may be interpreted.
!!!RWG: Key is interpreted using the Humdrum key tool.
!!!OPT: Oxford
!!!AFT: stage1
!!!END: 1997/04/15
!!format changes:
!!content changes:
!!public access: complete
!!!KEY: 3920827932
!!!EMD: Converted from MuseData to Humdrum Dec 16, 2000, by Andreas Kornstaedt using muse2kern.
